assets/icons/traton/save.svg

<svg xmlns="http://www.w3.org/2000/svg" width="32" height="32" viewBox="0 0 32 32" fill="none">
<path d="M28 9.58594V28H4.00003V4H22.4141L28 9.58594ZM6.00003 26H10V18H22V26H26V10.4141L22 6.41406V11H10V6H6.00003V26ZM12 26H20V20H12V26ZM12 9H20V6H12V9Z" fill="#001D21" />
</svg>

<svg xmlns="http://www.w3.org/2000/svg" fill="none" viewBox="0 0 32 32"><path fill="#001d21" d="M28 9.6V28H4V4h18.4zM6 26h4v-8h12v8h4V10.4l-4-4V11H10V6H6zm6 0h8v-6h-8zm0-17h8V6h-8z"/></svg>
